!!!!SEGMENT: sonata06-3g.krn
!!!COM: Mozart, Wolfgang Amadeus
!!!CDT: 1756/01/27/-1791/12/05/
!!!CNT: German
!!!OTL: Piano Sonata No. 6 in D major
!!!SCT1: K<sup>1</sup> 284
!!!SCT2: K<sup>6</sup> 205b
!!!OMV: 3g
!!!OMD: Variation 6
!!!ODT: 1775
**kern	**kern	**dynam
*part1	*part1	*
*staff2	*staff1	*staff1/2
*ICklav	*ICklav	*
*Ipiano	*Ipiano	*
*LH	*RH	*
*I"	*I"	*
*>[A,A,B,B]	*>[A,A,B,B]	*>[A,A,B,B]
*>norep[A,B]	*>norep[A,B]	*>norep[A,B]
*>A	*>A	*>A
*clefF4	*clefG2	*
*k[f#c#]	*k[f#c#]	*
*D:	*D:	*
*M2/2	*M2/2	*
*met(c|)	*met(c|)	*
*MM120	*MM120	*
=!|:	=!|:	=!|:
4AA 4A	2r	f
4FF# 4F#	.	.
=1	=1	=1
4DD 4D	16rg	.
.	(>16dLL<	.
.	16f#	.
.	16dJJ)	.
4aa>/	16rg	.
.	(>16dLL<	.
.	16f#	.
.	16dJJ)	.
4bb>/	16rg	.
.	(>16dLL<	.
.	16f#	.
.	16dJJ)	.
4ff#>/	16rg	.
.	(>16d#LL	.
.	16b\	.
.	16d#JJ)	.
=2	=2	=2
4gg>/	16rg	.
.	16eLL<	.
.	16b	.
.	16eJJ	.
4EE 4E	16rg	.
.	16g#LL<	.
.	16b	.
.	16g#JJ	.
4CC# 4C#	16rg	.
.	16gnLL<	.
.	16ee	.
.	16gJJ	.
4AAA 4AA	16rg	.
.	16gLL<	.
.	16cc#	.
.	16gJJ	.
=3	=3	=3
4DD 4D	16rg	.
.	16f#LL<	.
.	16dd	.
.	16f#JJ	.
4aa>/	16rg	.
.	16f#LL<	.
.	16dd	.
.	16f#JJ	.
4GG 4G	16rg	.
.	16eLL<	.
.	16dd	.
.	16eJJ	.
4bb>/	16rg	.
.	16eLL<	.
.	16dd	.
.	16eJJ	.
=4	=4	=4
(>4dd>/	16rg	.
.	16f#LL<	.
.	16a	.
.	16f#JJ	.
4>cc#>)/	16rg	.
.	16eLL<	.
.	16a	.
.	16eJJ	.
4AA 4A	2r	.
4FF# 4F#	.	.
!!LO:LB:g=original
=5	=5	=5
4DD 4D	16rg	.
.	16f#LL<	.
.	16a	.
.	16f#JJ	.
4ddd>/	16rg	.
.	16f#LL<	.
.	16a	.
.	16f#JJ	.
4bb>/	16rg	.
.	16f#LL<	.
.	16dd	.
.	16f#JJ	.
4aa>/	16rg	.
.	16f#LL<	.
.	16dd	.
.	16f#JJ	.
=6	=6	=6
4gg#>/	16rg	.
.	16eLL<	.
.	16dd	.
.	16eJJ	.
4BBB 4BB	16rg	.
.	16g#LL<	.
.	16dd	.
.	16g#JJ	.
4EE 4E	16rg	.
.	16g#LL<	.
.	16b	.
.	16g#JJ	.
4DD 4D	16rg	.
.	16g#LL<	.
.	16b	.
.	16g#JJ	.
=7	=7	=7
4CC# 4C#	16rg	.
.	16aLL<	.
.	16cc#	.
.	16aJJ	.
4ee>/	16rg	.
.	16c#LL<	.
.	16a	.
.	16c#JJ	.
4EE 4E	16rg	.
.	16BLL<	.
.	16g#	.
.	16BJJ	.
4g#X>/	16rc	.
.	16dLL<	.
.	16e	.
.	16dJJ	.
=8	=8	=8
(>4b>/	16re	.
.	16dLL<	.
.	16e	.
.	16dJJ	.
4a>)/	16re	.
.	16c#LL<	.
.	16e	.
.	16c#JJ	.
!!LO:LB:g=original
=:|!|:	=:|!|:	=:|!|:
*>B	*>B	*>B
4aa>/	16rb	.
.	16aLL<	.
.	16ff#	.
.	16aJJ	.
4cccn>/	16rb	.
.	16eeLL<	.
.	16aa	.
.	16eeJJ	.
=9	=9	=9
4bb>/	16rb	.
.	16dd#LL<	.
.	16aa	.
.	16dd#JJ	.
4eee>/	16rb	.
.	16ddnLL<	.
.	16gg#	.
.	16ddJJ	.
4aa>/	16rb	.
.	16cc#LL<	.
.	16ggn	.
.	16cc#JJ	.
4ddd>/	16rb	.
.	16ccnLL<	.
.	16ff#	.
.	16ccJJ	.
=10	=10	=10
4GG 4G	16r	.
.	16bLL	.
.	16bb	.
.	16bJJ	.
4C#X 4c#X	16r	.
.	16eeLL	.
.	16gg	.
.	16eeJJ	.
4FF# 4F#	16r	.
.	16aLL	.
.	16aa	.
.	16aJJ	.
4BB 4B	16r	.
.	16ddLL	.
.	16ff#	.
.	16ddJJ	.
!!LO:LB:g=original
=11	=11	=11
4EE 4E	16rg	.
.	16bLL<	.
.	16gg	.
.	16bJJ	.
4ccc#X>/	16rg	.
.	16aLL<	.
.	16gg	.
.	16aJJ	.
4ddd>/	16rg	.
.	16aLL<	.
.	16ff#	.
.	16aJJ	.
4dd>/	16rg	.
.	16g#LL<	.
.	16b	.
.	16g#JJ	.
=12	=12	=12
(>4ff#>/	16rg	.
.	16aLL<	.
.	16dd	.
.	16aJJ	.
4ee>/)	16rg	.
.	16aLL<	.
.	16cc#	.
.	16aJJ	.
2r	4ee 4eee	.
.	4cc# 4ccc#	.
=13	=13	=13
2r	4a 4aa	.
.	4r	.
4AA/ 4A/	2r	.
4FF# 4F#	.	.
=14	=14	=14
4DD 4D	16rg	.
.	16dLL<	.
.	16f#	.
.	16dJJ	.
4aa>/	16rg	.
.	16dLL<	.
.	16f#	.
.	16dJJ	.
4bb>/	16rg	.
.	16dLL<	.
.	16f#	.
.	16dJJ	.
4ff#>/	16rg	.
.	16d#LL<	.
.	16b	.
.	16d#JJ	.
!!LO:LB:g=original
=15	=15	=15
4gg>/	16rg	.
.	16eLL<	.
.	16b	.
.	16eJJ	.
4EE 4E	16rg	.
.	16g#LL<	.
.	16b	.
.	16g#JJ	.
4CC# 4C#	16rg	.
.	16gnLL<	.
.	16ee	.
.	16gJJ	.
4AAA 4AA	16rg	.
.	16gLL<	.
.	16cc#	.
.	16gJJ	.
=16	=16	=16
4DD 4D	16rg	.
.	16f#LL<	.
.	16dd	.
.	16f#JJ	.
4bb>/	16rg	.
.	16gLL<	.
.	16dd	.
.	16gJJ	.
4AA 4A	16rg	.
.	16f#LL<	.
.	16dd	.
.	16f#JJ	.
4cc#>/	16rg	.
.	16eLL<	.
.	16a	.
.	16eJJ	.
=17	=17	=17
(>4ee>/	16rg	.
.	16gLL<	.
.	16a	.
.	16gJJ	.
4dd>/)	16rg	.
.	16f#LL<	.
.	16a	.
.	16f#JJ	.
==:|!	==:|!	==:|!
*-	*-	*-
!!!RDF**kern: > = above
!!!RDF**kern: < = below
!!!YOR: Alte Mozart-Ausgabe, Band 20, Breitkopf &amp; H&auml;rtel 1877-1883.
!!!YOY: 1878
!!!YEC: 2018 Craig Stuart Sapp
!!!YEM: Licence: (CC BY-NC-SA 4.0) https://creativecommons.org/licenses/by-nc-sa/4.0
!!!YER: 2018
!!!URL-github: https://github.com/craigsapp/mozart-piano-sonatas/blob/main/kern/sonata06-3g.krn
!!!URL-vhv: https://verovio.humdrum.org/?file=mozart/sonatas/sonata06-3g.krn
!!!URL-pdf: https://github.com/craigsapp/mozart-piano-sonatas/blob/master/reference-edition/sonata06-3g.pdf
!!!URL-youtube: https://www.youtube.com/watch?v=k7nz1wLoCC0?t=362s András Schiff
!!!URL-wikipedia: https://en.wikipedia.org/wiki/Piano_Sonata_No._6_(Mozart)#Tema_con_variazione_(Theme_with_variations)
!!!ENC: Craig Stuart Sapp
!!!END: 2009/09/22
!!!EED: Craig Stuart Sapp
!!!EEV: 2024/06/03
!!!EFL: 24/69
!!!AGN: piano sonata
!!!AFR: theme and variations
!!!title: @{OTL} (<i>@{OTP}</i>), K 284 (205b), mvmt. @{OMV}
!!!filter-hands: hands -c
